frontend/public/svg/files/file-zip.svg

<svg width="143" height="175" viewBox="0 0 143 175" fill="none" xmlns="http://www.w3.org/2000/svg">
<g clip-path="url(#clip0)">
<path d="M79.7406 174.715C64.1335 174.403 48.5218 174.209 32.92 173.716C26.9854 173.528 21.081 172.333 15.1477 172.171C8.46751 171.988 3.09997 163.682 3.16889 158.079C3.26274 150.47 2.9103 142.852 2.70158 135.239C2.59985 131.539 2.27562 127.843 2.24608 124.147C1.99448 92.3889 1.76608 60.6306 1.56086 28.873C1.53986 25.9582 1.38037 23.0432 1.38037 20.1291C1.38818 15.9622 2.46355 11.8668 4.50388 8.23362C6.3075 4.95193 9.10482 2.94921 12.8059 2.6368C17.3852 2.25021 21.9946 2.17148 26.589 2.00674C28.9413 1.92273 31.3074 2.07248 33.6499 1.89265C52.8425 0.422453 72.0417 1.36786 91.2389 1.68946C94.1478 1.73803 97.0561 2.04914 99.9623 2.01763C101.885 2.01773 103.73 2.77869 105.093 4.13471C115.079 13.0014 125.069 21.8638 135.061 30.7222C135.9 31.4671 136.631 32.3365 137.49 33.0559C139.625 34.8483 140.447 37.1622 140.527 39.8814C140.659 44.3622 140.987 48.8382 141.062 53.319C141.35 70.4856 141.552 87.6528 141.821 104.82C142.008 116.82 142.346 128.819 142.429 140.819C142.473 147.205 141.976 153.594 141.976 159.981C141.976 168.038 135.661 173.525 127.586 173.757C120.516 173.96 113.438 173.844 106.364 173.947C97.4919 174.079 88.6208 174.287 79.7497 174.463L79.7406 174.715ZM40.2947 78.657V70.2165C39.3036 70.0925 38.5311 70.0045 37.7618 69.8975C36.9798 69.8162 36.2025 69.6941 35.4332 69.532C33.4464 69.0404 32.4547 67.8045 32.5151 65.9965C32.5741 64.2112 33.6466 63.025 35.674 62.6673C37.0865 62.4186 38.5238 62.3077 40.0761 62.1199V54.6663C38.7529 54.4852 37.6476 54.3616 36.5568 54.1792C34.194 53.7854 32.9319 52.6492 32.8892 50.9283C32.8472 49.2684 34.1244 47.9092 36.3678 47.3947C37.5446 47.123 38.7628 47.03 40.0964 46.8371C40.2553 44.0837 40.7935 41.4778 39.9192 38.6431C38.2042 38.6431 36.6375 38.6894 35.0741 38.6284C33.9223 38.5831 33.0093 37.8683 33.0723 36.7676C33.1537 35.803 33.5923 34.9036 34.3023 34.2455C35.019 33.6495 36.1492 33.5134 37.1245 33.2712C38.1747 33.0087 39.2491 32.8596 40.2264 32.6771V24.3209C38.3138 24.1286 36.6356 24.0374 34.9849 23.7729C33.2331 23.492 32.1922 22.3728 32.2184 20.9085C32.1945 20.2242 32.4144 19.5535 32.839 19.0164C33.2636 18.4793 33.8652 18.1101 34.5366 17.9755C35.6299 17.7549 36.7341 17.592 37.8445 17.4877C38.579 17.3781 39.3082 17.2404 40.1312 17.0993C40.1312 15.6718 40.1745 14.4461 40.1188 13.2273C40.0643 12.0321 39.9087 10.8421 39.767 9.31875C35.6412 9.31875 31.7793 9.71249 28.0382 9.21104C24.0542 8.67678 20.2081 9.30411 16.3029 9.46295C15.2221 9.43138 14.1662 9.79085 13.329 10.475C12.4918 11.1593 11.9295 12.1222 11.7453 13.1875C10.5894 17.5253 10.1806 22.0283 10.5363 26.5034C10.7713 28.9548 10.9924 31.4176 11.0174 33.8776C11.0883 40.8348 11.0312 47.7918 11.066 54.749C11.2033 82.0149 11.3436 109.28 11.4867 136.546C11.5083 142.04 11.2451 147.535 11.232 153.029C11.18 154.932 11.3813 156.833 11.8306 158.684C12.6464 161.674 14.8852 164.611 18.6467 164.646C21.5615 164.673 24.4723 165.04 27.3871 165.069C44.3443 165.254 61.3021 165.493 78.2592 165.501C92.2976 165.508 106.336 165.217 120.374 165.068C122.282 165.047 124.198 165.191 126.099 165.08C130.703 164.811 133.117 162.335 133.036 157.776C132.941 152.401 132.544 147.032 132.454 141.657C132.328 134.253 132.504 126.842 132.304 119.441C131.993 107.898 131.302 96.3624 131.092 84.8181C130.879 73.0394 131.053 61.2553 131.057 49.4714C131.057 48.2815 131.057 47.0918 131.057 46.0378C123.527 46.0378 116.459 46.1182 109.398 45.9942C106.939 45.9346 104.493 45.6121 102.103 45.0321C98.7625 44.2445 97.0712 41.8652 96.7929 38.4732C96.2612 31.9991 95.7565 25.5225 95.1894 19.051C94.9381 16.1795 94.562 13.3192 94.2253 10.2994C78.3321 9.64633 62.7782 9.25804 46.986 9.46807L47.8635 16.7019C49.484 16.8181 50.8427 16.8002 52.1553 17.0358C54.1637 17.3962 55.4291 18.7367 55.4862 20.3047C55.544 21.8924 54.3783 23.2721 52.4015 23.7749C51.1203 24.103 49.7984 24.271 48.1812 24.5677L48.7306 31.7265C50.8354 31.7265 52.5124 31.6346 54.1742 31.7547C54.7885 31.837 55.3588 32.1188 55.7975 32.5566C56.2362 32.9944 56.5192 33.5641 56.6028 34.1782C56.6864 34.7923 56.5662 35.4164 56.2605 35.9556C55.9547 36.4947 55.4805 36.9189 54.9106 37.1625C54.0764 37.4838 53.2136 37.7253 52.3339 37.8842C51.2516 38.1113 50.1515 38.2567 49.0121 38.445V46.4871C50.6222 46.4098 52.2353 46.4208 53.8441 46.5204C56.0881 46.7777 57.494 48.241 57.6397 50.1431C57.7847 52.0288 56.8521 53.4372 54.7833 54.1939C53.9319 54.4577 53.0525 54.6202 52.1632 54.6791C51.1879 54.7907 50.2021 54.8109 49.1027 54.8765V61.6931C51.2502 62.0955 53.2055 62.2053 54.9349 62.8872C55.4683 63.1359 55.9387 63.5018 56.3111 63.9576C56.6833 64.4134 56.9479 64.9472 57.0851 65.5196C57.1921 66.4905 56.3539 67.8032 55.5506 68.5665C54.7951 69.2839 53.5711 69.5753 52.5025 69.8792C51.3585 70.2034 50.1555 70.3229 48.9727 70.5355V78.0893C50.7752 78.3558 52.5627 78.7161 54.3278 79.1683C55.0483 79.3422 55.6914 79.7485 56.158 80.3241C56.6246 80.9004 56.8888 81.6132 56.9098 82.3542C56.9998 84.1919 56.0297 85.3405 54.4236 85.943C53.3592 86.2863 52.2724 86.5561 51.1708 86.749C50.4489 86.9105 49.7098 87.0247 48.8185 87.1901C48.8185 88.1647 48.7916 88.9379 48.8257 89.7078C48.8592 90.4613 48.957 91.2115 49.0417 92.1717C50.6759 92.1717 52.1146 92.0982 53.5422 92.1894C55.8459 92.3364 57.1638 93.4417 57.366 95.2374C57.5754 97.0903 56.2981 98.6734 53.995 99.1755C52.3778 99.5305 50.7134 99.6822 49.0128 99.9342C48.7693 101.27 48.6006 102.481 48.3223 103.665C47.8189 105.81 46.9374 106.673 45.3327 106.722C43.6183 106.775 42.5104 105.754 42.0143 103.564C41.7228 102.275 41.5279 100.963 41.27 99.5542C39.9192 99.4564 38.8074 99.4052 37.7015 99.2923C35.4286 99.0547 34.192 98.0452 34.1572 96.4431C34.1218 94.9572 35.1365 93.9523 37.2296 93.4581C38.3952 93.1831 39.5727 92.9613 40.8571 92.6915L40.5657 86.6722C39.1927 86.577 38.0946 86.5009 36.9959 86.4235C33.9485 86.2082 32.2046 84.8909 32.1521 82.7696C32.1029 80.6694 33.7359 79.3324 36.8699 78.9589C37.9548 78.8185 39.0542 78.7601 40.294 78.657H40.2947ZM126.36 36.3664L103.323 15.4348C104.514 23.2229 105.604 30.3531 106.719 37.647L126.36 36.3664Z" fill="black"/>
</g>
<defs>
<clipPath id="clip0">
<rect width="141.769" height="173.93" fill="white" transform="translate(0.855469 0.793701)"/>
</clipPath>
</defs>
</svg>

<svg xmlns="http://www.w3.org/2000/svg" width="143" height="175" fill="none" viewBox="0 0 143 175"><g clip-path="url(#a)"><path fill="#000" d="M79.74 174.715c-15.606-.312-31.218-.506-46.82-.999-5.935-.188-11.839-1.383-17.772-1.545-6.68-.183-12.048-8.489-11.98-14.092.095-7.609-.258-15.227-.466-22.84-.102-3.7-.426-7.396-.456-11.092q-.378-47.637-.685-95.274c-.021-2.915-.18-5.83-.18-8.744A24.4 24.4 0 0 1 4.503 8.234c1.804-3.282 4.6-5.285 8.302-5.597 4.58-.387 9.189-.466 13.783-.63 2.352-.084 4.718.065 7.06-.114 19.194-1.47 38.393-.525 57.59-.204 2.909.049 5.817.36 8.723.329a7.27 7.27 0 0 1 5.131 2.117q14.98 13.3 29.968 26.587c.839.745 1.57 1.614 2.429 2.334 2.135 1.792 2.957 4.106 3.037 6.825.132 4.481.46 8.957.535 13.438.288 17.167.49 34.334.759 51.501.187 12 .525 23.999.608 35.999.044 6.386-.453 12.775-.453 19.162 0 8.057-6.315 13.544-14.39 13.776-7.07.203-14.148.087-21.222.19-8.872.132-17.743.34-26.614.516zM40.296 78.657v-8.44c-.991-.124-1.764-.213-2.533-.32a23 23 0 0 1-2.329-.365c-1.987-.492-2.978-1.727-2.918-3.535.06-1.786 1.132-2.972 3.159-3.33 1.413-.248 2.85-.36 4.402-.547v-7.454c-1.323-.18-2.428-.304-3.52-.487-2.362-.394-3.624-1.53-3.667-3.25-.042-1.66 1.235-3.02 3.479-3.534 1.177-.272 2.395-.365 3.728-.558.16-2.753.698-5.36-.177-8.194-1.715 0-3.281.046-4.845-.015-1.152-.045-2.065-.76-2.002-1.86a3.88 3.88 0 0 1 1.23-2.523c.717-.595 1.847-.732 2.822-.974 1.05-.262 2.125-.411 3.102-.594v-8.356c-1.912-.192-3.59-.284-5.241-.548-1.752-.281-2.793-1.4-2.767-2.864a2.89 2.89 0 0 1 2.319-2.933 32 32 0 0 1 3.307-.488c.735-.11 1.464-.248 2.287-.389 0-1.427.044-2.653-.012-3.872-.055-1.195-.21-2.385-.352-3.908-4.126 0-7.988.393-11.729-.108-3.984-.534-7.83.093-11.735.252a4.49 4.49 0 0 0-4.558 3.725 39.6 39.6 0 0 0-1.209 13.315c.235 2.452.456 4.915.481 7.375.071 6.957.014 13.914.049 20.871q.206 40.899.42 81.797c.022 5.494-.24 10.989-.254 16.483-.052 1.903.15 3.804.599 5.655.815 2.99 3.054 5.927 6.816 5.962 2.915.027 5.825.394 8.74.423 16.957.185 33.915.424 50.872.432 14.039.007 28.077-.284 42.115-.433 1.908-.021 3.824.123 5.725.012 4.604-.269 7.018-2.745 6.937-7.304-.095-5.375-.492-10.744-.582-16.119-.126-7.404.05-14.815-.15-22.216-.311-11.543-1.002-23.079-1.212-34.623-.213-11.779-.039-23.563-.035-35.347v-3.433c-7.53 0-14.598.08-21.659-.044a34.5 34.5 0 0 1-7.295-.962c-3.34-.787-5.032-3.167-5.31-6.559-.532-6.474-1.037-12.95-1.604-19.422-.25-2.871-.627-5.732-.964-8.752-15.893-.653-31.447-1.041-47.239-.83l.878 7.233c1.62.116 2.979.098 4.291.334 2.009.36 3.274 1.7 3.331 3.269.058 1.587-1.108 2.967-3.084 3.47-1.282.328-2.604.496-4.22.793l.549 7.159c2.104 0 3.781-.092 5.443.028a2.83 2.83 0 0 1 .737 5.408 14.3 14.3 0 0 1-2.577.721c-1.082.227-2.183.373-3.322.561v8.042a44 44 0 0 1 4.832.033c2.244.258 3.65 1.721 3.796 3.623.145 1.886-.788 3.294-2.857 4.05-.851.265-1.73.427-2.62.486-.975.112-1.96.132-3.06.197v6.817c2.147.403 4.102.512 5.832 1.194a3.91 3.91 0 0 1 2.15 2.633c.107.97-.731 2.283-1.534 3.047-.756.717-1.98 1.008-3.049 1.312-1.144.324-2.346.444-3.53.656v7.554q2.706.4 5.356 1.08a3.376 3.376 0 0 1 2.582 3.185c.09 1.838-.88 2.987-2.486 3.589a24 24 0 0 1-3.253.806c-.722.162-1.461.276-2.352.441 0 .975-.027 1.748.007 2.518.033.753.131 1.504.216 2.464 1.634 0 3.073-.074 4.5.017 2.304.147 3.622 1.253 3.824 3.048.21 1.853-1.068 3.436-3.371 3.939-1.617.355-3.282.506-4.982.758-.244 1.336-.412 2.547-.69 3.731-.504 2.145-1.386 3.008-2.99 3.057-1.715.053-2.823-.968-3.319-3.158-.291-1.289-.486-2.601-.744-4.01-1.35-.098-2.463-.149-3.568-.262-2.273-.237-3.51-1.247-3.545-2.849-.035-1.486.98-2.49 3.073-2.985 1.165-.275 2.343-.497 3.627-.766l-.291-6.02-3.57-.248c-3.047-.216-4.791-1.533-4.844-3.654-.05-2.1 1.584-3.438 4.718-3.811 1.085-.14 2.184-.199 3.424-.302m86.065-42.29-23.037-20.932 3.396 22.212z"/></g><defs><clipPath id="a"><path fill="#fff" d="M.855.794h141.77v173.93H.854z"/></clipPath></defs></svg>
